X:1055
M:C
L:1/8
Q:1/2=104
K:G
g3a g2f2|e2g2 d2z2|c3 e d2c2|BABc d2z2|
g3a g2f2|e2g2 d2z2|c2A2 B2G2|FGAB AcBA|

